!!!SOCIAL_FUNCTION:	memorial ceremony songs
!!!PDT:	1932
!!!OTL: No_39_I_am_Going_to_Die.krn
!!!REG: Southwest
!!!LANG: Non-Tone
!!!LING_GROUP: Yuman-Cochimi
**kern
*staff1
=1-
*clefF4
*k[b-]
*M3/4
4F\
4F\
4F\
=2
8C/L
8G/J
4F\
8F\
8r
=3||
*M2/4
8C/L
8G/J
8F\
8r
=4
4G\
4F\
=5
8F/L
8C/J
8F\
8r
=6
4G\
4F\
=7
4G\
4C/
=8||
*M3/4
4F\
8F\L
8G\J
8C/L
8G/J
=9||
*M2/4
4F\
8C/L
8G/J
=10
4F\
8C/L
8G/J
=11
4F\
4r
=12||
*M3/4
4G\
4F\
8C/L
8G/J
=13
4F\
4F\
8C/L
8G/J
=14||
*M2/4
4F\
8C/L
8G/J
=15||
*M3/4
4F\
8C/L
8G/J
4F\
=16||
*M2/4
4G\
4F\
=17
4F\
8C/L
8G/J
=18
4F\
4F\
=19
8C/L
8G/J
4F\
=20
4G\
4F\
=21||
*M3/4
8F/L
8C/J
4F\
4r
=22||
*M2/4
4A\
8A\L
8A\J
=23
4c\
8c\L
8c\J
=24
4A\
8A\L
8c\J
=25
4A\
4A\
=26
4A\
4A\
=27
4A\
8A\L
8c\J
=28
4A\
4A\
=29
4c\
8c\L
8A\J
=30
4A\
4r
=31
4G\
8F\L
8G\J
=32
4F\
4F\
=33
4F\
8F\L
8G\J
=34
4G\
8G\L
8G\J
=35
4G\
4r
=36
4c\
8c\L
8A\J
=37
4A\
4c\
=38
4A\
8F\L
8G\J
=39
4F\
4F\
=40
4F\
4A\
=41||
*M3/4
4A\
8A\L
8A\J
8A\L
8F\J
=42||
*M2/4
4A\
4F\
=43
4F\
4r
=44
4F\
4F\
=45
8C/L
8G/J
8F\
8r
=46
4G\
4F\
=47
8F/L
8C/J
8F\
8r
==
*-
